.local/share/icons/Gruvbox-Plus-Dark/mimetypes/scalable/application-x-openteacher.svg

<svg width="256" height="256" viewBox="0 0 256 256" fill="none" xmlns="http://www.w3.org/2000/svg">
<g opacity="0.4" filter="url(#filter0_f)">
<path d="M55.0839 15.5636H155.608L216.009 75.7129L216.011 224.609C216.011 233.52 208.749 240.737 199.838 240.737H55.0838C46.1734 240.737 39 233.564 39 224.654V31.6474C39 22.737 46.1734 15.5636 55.0838 15.5636H55.0839Z" fill="#282828"/>
</g>
<path d="M55.0839 15H155.608L216.009 75.1493L216.011 224.045C216.011 232.956 208.749 240.174 199.838 240.174H55.0838C46.1734 240.174 39 233 39 224.09V31.0838C39 22.1734 46.1734 15 55.0838 15H55.0839Z" fill="#ebdbb2"/>
<path fill-rule="evenodd" clip-rule="evenodd" d="M155.609 22.9787H55.0839C50.58 22.9787 46.9787 26.5799 46.9787 31.0838V224.09C46.9787 228.594 50.5799 232.195 55.0838 232.195H199.838C204.371 232.195 208.032 228.521 208.032 224.046V75.1493L155.609 22.9787ZM155.608 15H55.0839C46.1735 15 39 22.1734 39 31.0838V224.09C39 233 46.1734 240.174 55.0838 240.174H199.838C208.749 240.174 216.011 232.956 216.011 224.045L216.009 75.1493L155.608 15Z" fill="url(#paint0_linear)"/>
<path d="M128.011 68.0011C127.172 67.984 126.344 68.1831 125.612 68.5775L70.2738 100.885C69.391 101.42 68.7102 102.213 68.3317 103.148C67.9532 104.083 67.897 105.11 68.1715 106.078C68.7185 108.099 70.5902 109.538 72.6724 109.538H183.345C185.898 109.538 187.996 107.485 187.996 104.924C187.996 102.976 186.834 101.278 185.145 100.595L130.267 68.5775C129.587 68.1832 128.805 67.9833 128.011 68.0011V68.0011ZM128.011 83.435C130.754 83.4398 133.383 84.4897 135.322 86.3547C137.261 88.2196 138.353 90.7478 138.359 93.3854C138.353 96.023 137.261 98.5511 135.322 100.416C133.383 102.281 130.754 103.331 128.011 103.336C125.269 103.331 122.64 102.281 120.701 100.416C118.762 98.5508 117.67 96.0228 117.665 93.3854C117.67 90.7479 118.762 88.22 120.701 86.355C122.64 84.4901 125.269 83.4401 128.011 83.435V83.435ZM72.8217 114.155V118.77C72.8252 119.993 73.332 121.165 74.2313 122.03C75.1306 122.895 76.3494 123.382 77.6212 123.385V160.308H92.0185V123.385C93.2903 123.382 94.509 122.895 95.4083 122.03C96.3076 121.165 96.8144 119.993 96.8179 118.77V114.155H72.8217ZM101.616 114.155V118.77C101.62 119.993 102.127 121.165 103.026 122.03C103.925 122.895 105.144 123.382 106.416 123.385V160.308H120.813V123.385C122.085 123.382 123.304 122.895 124.203 122.03C125.102 121.165 125.609 119.993 125.612 118.77V114.155H101.616ZM130.411 114.155V118.77C130.414 119.993 130.921 121.165 131.82 122.03C132.72 122.895 133.938 123.382 135.21 123.385V160.308H149.608V123.385C150.879 123.382 152.098 122.895 152.997 122.03C153.897 121.165 154.404 119.993 154.407 118.77V114.155H130.411ZM159.205 114.155V118.77C159.209 119.993 159.716 121.165 160.615 122.03C161.514 122.895 162.733 123.382 164.005 123.385V160.308H178.402V123.385C179.674 123.382 180.892 122.894 181.791 122.029C182.69 121.164 183.197 119.993 183.201 118.77V114.155H159.205ZM77.6212 164.924V174.154H72.8217C71.5501 174.158 70.3317 174.645 69.4326 175.51C68.5335 176.375 68.0269 177.547 68.0234 178.77V183.384C68.0269 184.607 68.5335 185.779 69.4326 186.644C70.3317 187.509 71.5501 187.996 72.8217 188H183.201C184.472 187.997 185.691 187.509 186.59 186.644C187.49 185.779 187.996 184.607 188 183.384V178.77C187.996 177.547 187.49 176.374 186.59 175.51C185.691 174.645 184.472 174.157 183.201 174.154H178.402V164.924H77.6212Z" fill="url(#paint1_linear)"/>
<path opacity="0.25" d="M155.608 17V61.2306C155.608 70.141 162.867 77.1605 171.777 77.1605L216.009 77.1493V75.1493L155.608 17Z" fill="#282828"/>
<path d="M155.608 15V59.2306C155.608 68.141 162.867 75.1605 171.777 75.1605L216.009 75.1493L155.608 15Z" fill="url(#paint2_linear)"/>
<defs>
<filter id="filter0_f" x="23.8778" y="0.441412" width="207.255" height="255.418" filterUnits="userSpaceOnUse" color-interpolation-filters="sRGB">
<feFlood flood-opacity="0" result="BackgroundImageFix"/>
<feBlend mode="normal" in="SourceGraphic" in2="BackgroundImageFix" result="shape"/>
<feGaussianBlur stdDeviation="7.5611" result="effect1_foregroundBlur"/>
</filter>
<linearGradient id="paint0_linear" x1="39" y1="15" x2="39" y2="240.174" gradientUnits="userSpaceOnUse">
<stop offset="1e-07" stop-color="#fb4934"/>
<stop offset="1" stop-color="#cc241d"/>
</linearGradient>
<linearGradient id="paint1_linear" x1="68" y1="68" x2="68" y2="188" gradientUnits="userSpaceOnUse">
<stop offset="1e-07" stop-color="#fb4934"/>
<stop offset="1" stop-color="#cc241d"/>
</linearGradient>
<linearGradient id="paint2_linear" x1="155.608" y1="15" x2="155.608" y2="75.1605" gradientUnits="userSpaceOnUse">
<stop offset="1e-07" stop-color="#fb4934"/>
<stop offset="1" stop-color="#cc241d"/>
</linearGradient>
</defs>
</svg>

<svg width="256" height="256" fill="none" version="1.1" viewBox="0 0 256 256" xmlns="http://www.w3.org/2000/svg">
  <path d="m55.08 15h100.5l60.4 60.15 2e-3 148.9c0 8.911-7.262 16.13-16.17 16.13h-144.8c-8.91 0-16.08-7.174-16.08-16.08v-193c0-8.91 7.173-16.08 16.08-16.08h1e-4z" fill="#ebdbb2"/>
  <path d="m155.6 22.98h-100.5c-4.504 0-8.105 3.601-8.105 8.105v193c0 4.504 3.601 8.105 8.105 8.105h144.8c4.533 0 8.194-3.674 8.194-8.149v-148.9l-52.42-52.17zm-1e-3 -7.979h-100.5c-8.91 0-16.08 7.173-16.08 16.08v193c0 8.91 7.173 16.08 16.08 16.08h144.8c8.911 0 16.17-7.218 16.17-16.13l-2e-3 -148.9-60.4-60.15z" clip-rule="evenodd" fill="url(#paint0_linear)" fill-rule="evenodd"/>
  <path d="m128 68c-0.839-0.0171-1.667 0.182-2.399 0.5764l-55.34 32.31c-0.8828 0.535-1.564 1.328-1.942 2.263s-0.4347 1.962-0.1602 2.93c0.547 2.021 2.419 3.46 4.501 3.46h110.7c2.553 0 4.651-2.053 4.651-4.614 0-1.948-1.162-3.646-2.851-4.329l-54.88-32.02c-0.68-0.3943-1.462-0.5942-2.256-0.5764zm0 15.43c2.743 0.0048 5.372 1.055 7.311 2.92 1.939 1.865 3.031 4.393 3.037 7.031-6e-3 2.638-1.098 5.166-3.037 7.031-1.939 1.865-4.568 2.915-7.311 2.92-2.742-5e-3 -5.371-1.055-7.31-2.92-1.939-1.865-3.031-4.393-3.036-7.031 5e-3 -2.638 1.097-5.165 3.036-7.03 1.939-1.865 4.568-2.915 7.31-2.92zm-55.19 30.72v4.615c0.0035 1.223 0.5103 2.395 1.41 3.26s2.118 1.352 3.39 1.355v36.92h14.4v-36.92c1.272-3e-3 2.49-0.49 3.39-1.355s1.406-2.037 1.41-3.26v-4.615h-24zm28.79 0v4.615c4e-3 1.223 0.511 2.395 1.41 3.26s2.118 1.352 3.39 1.355v36.92h14.4v-36.92c1.272-3e-3 2.491-0.49 3.39-1.355s1.406-2.037 1.409-3.26v-4.615h-24zm28.8 0v4.615c3e-3 1.223 0.51 2.395 1.409 3.26 0.9 0.865 2.118 1.352 3.39 1.355v36.92h14.4v-36.92c1.271-3e-3 2.49-0.49 3.389-1.355 0.9-0.865 1.407-2.037 1.41-3.26v-4.615h-24zm28.79 0v4.615c4e-3 1.223 0.511 2.395 1.41 3.26s2.118 1.352 3.39 1.355v36.92h14.4v-36.92c1.272-3e-3 2.49-0.491 3.389-1.356s1.406-2.036 1.41-3.259v-4.615h-24zm-81.58 50.77v9.23h-4.8c-1.272 4e-3 -2.49 0.491-3.389 1.356s-1.406 2.037-1.409 3.26v4.614c0.0035 1.223 0.5101 2.395 1.409 3.26s2.118 1.352 3.389 1.356h110.4c1.271-3e-3 2.49-0.491 3.389-1.356 0.9-0.865 1.406-2.037 1.41-3.26v-4.614c-4e-3 -1.223-0.51-2.396-1.41-3.26-0.899-0.865-2.118-1.353-3.389-1.356h-4.799v-9.23h-100.8z" fill="url(#paint1_linear)"/>
  <path d="m155.6 17v44.23c0 8.91 7.259 15.93 16.17 15.93l44.23-0.0112v-2l-60.4-58.15z" fill="#282828" opacity=".25"/>
  <path d="m155.6 15v44.23c0 8.91 7.259 15.93 16.17 15.93l44.23-0.0112-60.4-60.15z" fill="url(#paint2_linear)"/>
  <defs>
    <linearGradient id="paint0_linear" x1="39" x2="39" y1="15" y2="240.2" gradientUnits="userSpaceOnUse">
      <stop stop-color="#fb4934" offset="1e-7"/>
      <stop stop-color="#cc241d" offset="1"/>
    </linearGradient>
    <linearGradient id="paint1_linear" x1="68" x2="68" y1="68" y2="188" gradientUnits="userSpaceOnUse">
      <stop stop-color="#fb4934" offset="1e-7"/>
      <stop stop-color="#cc241d" offset="1"/>
    </linearGradient>
    <linearGradient id="paint2_linear" x1="155.6" x2="155.6" y1="15" y2="75.16" gradientUnits="userSpaceOnUse">
      <stop stop-color="#fb4934" offset="1e-7"/>
      <stop stop-color="#cc241d" offset="1"/>
    </linearGradient>
  </defs>
</svg>
